public/maskbook-title-white.svg

<svg fill="none" height="28" viewBox="0 0 190 28" width="190" xmlns="http://www.w3.org/2000/svg"><path d="m28.2365 1.15862v26.26208h-6.5013v-13.1697l-5.8089 8.9987v.0386h-3.6161v-.0386l-5.84735-9.0759.03846 13.2469h-6.50131v-26.26208h4.80867l9.30953 14.01928 9.2711-14.01928zm24.1972 7.53103v18.73105h-6.232v-1.0428c-1.3849.8883-3.0776 1.429-5.1165 1.429-5.0394 0-9.2711-4.2097-9.2711-9.771 0-5.6 4.2317-9.77107 9.2711-9.77107 2.0389 0 3.7316.54069 5.1165 1.42896v-1.00414zm-10.1174 13.98065c1.3848 0 2.7313-.3862 3.8854-1.7379v-5.7931c-1.1541-1.3517-2.5006-1.7765-3.8854-1.7765-2.539 0-4.3855 2.0855-4.3855 4.6731 0 2.5875 1.8465 4.6344 4.3855 4.6344zm13.0795-1.6993 5.5396.0387c.2693 1.622 1.6157 2.3558 3.5777 2.3558 1.6541 0 2.6543-.5021 2.6543-1.3131 0-.6179-.577-1.12-1.808-1.3131l-3.77-.6565c-3.2314-.5407-5.4627-2.3559-5.4627-5.6387 0-3.9393 3.3469-6.25651 8.3094-6.25651 3.9624 0 8.4633 1.54482 8.7326 6.48831h-5.5396c-.1154-1.429-1.4234-2.0856-3.1545-2.0856-1.6157 0-2.3466.618-2.3466 1.3518 0 .6179.4616 1.1972 1.9234 1.4676l3.5007.5793c3.5007.6565 5.8089 2.3558 5.8089 5.6772 0 4.3255-3.8854 6.3338-8.7325 6.3338-4.8856 0-8.848-2.0469-9.2327-7.029zm30.16-.0386-2.6159 2.8193v3.669h-6.2321v-27.4207h6.2321v15.7186l6.5013-7.02895h7.4246l-7.0784 7.64685 7.6939 11.0842h-7.4631zm25.5052-12.59033c5.039 0 9.271 4.17103 9.271 9.73243 0 5.6-4.232 9.8096-9.271 9.8096-2.039 0-3.732-.5407-5.116-1.4289v.9655h-6.2325v-27.4207h6.2325v9.77103c1.384-.88827 3.077-1.42896 5.116-1.42896zm-1.231 14.40553c2.539 0 4.385-2.0469 4.385-4.6731 0-2.549-1.846-4.6345-4.385-4.6345-1.385 0-2.731.4248-3.885 1.7766v5.7931c1.154 1.3517 2.5 1.7379 3.885 1.7379zm23.158-14.48277c5.886 0 10.118 4.13237 10.118 9.77107 0 5.7158-4.232 9.9641-10.118 9.9641-5.885 0-10.117-4.2483-10.117-9.9641 0-5.6387 4.232-9.77107 10.117-9.77107zm.039 14.32827c2.5 0 4.193-2.0083 4.193-4.5186 0-2.4331-1.693-4.4028-4.193-4.4028-2.539 0-4.232 1.9697-4.232 4.4028 0 2.5103 1.693 4.5186 4.232 4.5186zm22.774-14.32827c5.886 0 10.117 4.13237 10.117 9.77107 0 5.7158-4.231 9.9641-10.117 9.9641s-10.118-4.2483-10.118-9.9641c0-5.6387 4.232-9.77107 10.118-9.77107zm.038 14.32827c2.501 0 4.193-2.0083 4.193-4.5186 0-2.4331-1.692-4.4028-4.193-4.4028-2.539 0-4.231 1.9697-4.231 4.4028 0 2.5103 1.692 4.5186 4.231 4.5186zm22.236-1.6607-2.616 2.8193v3.669h-6.232v-27.4207h6.232v15.7186l6.501-7.02895h7.425l-7.079 7.64685 7.694 11.0842h-7.463z" fill="#fff"/></svg>

<svg width="190" height="28" viewBox="0 0 190 28" fill="none" xmlns="http://www.w3.org/2000/svg">
<path d="M28.2365 1.15862V27.4207H21.7352V14.251L15.9263 23.2497V23.2883H12.3102V23.2497L6.46285 14.1738L6.50131 27.4207H0V1.15862H4.80867L14.1182 15.1779L23.3893 1.15862H28.2365ZM52.4337 8.68965V27.4207H46.2017V26.3779C44.8168 27.2662 43.1241 27.8069 41.0852 27.8069C36.0458 27.8069 31.8141 23.5972 31.8141 18.0359C31.8141 12.4359 36.0458 8.26483 41.0852 8.26483C43.1241 8.26483 44.8168 8.80552 46.2017 9.69379V8.68965H52.4337ZM42.3163 22.6703C43.7011 22.6703 45.0476 22.2841 46.2017 20.9324V15.1393C45.0476 13.7876 43.7011 13.3628 42.3163 13.3628C39.7773 13.3628 37.9308 15.4483 37.9308 18.0359C37.9308 20.6234 39.7773 22.6703 42.3163 22.6703ZM55.3958 20.971L60.9354 21.0097C61.2047 22.6317 62.5511 23.3655 64.5131 23.3655C66.1672 23.3655 67.1674 22.8634 67.1674 22.0524C67.1674 21.4345 66.5904 20.9324 65.3594 20.7393L61.5894 20.0828C58.358 19.5421 56.1267 17.7269 56.1267 14.4441C56.1267 10.5048 59.4736 8.18759 64.4361 8.18759C68.3985 8.18759 72.8994 9.73241 73.1687 14.6759H67.6291C67.5137 13.2469 66.2057 12.5903 64.4746 12.5903C62.8589 12.5903 62.128 13.2083 62.128 13.9421C62.128 14.56 62.5896 15.1393 64.0514 15.4097L67.5521 15.989C71.0528 16.6455 73.361 18.3448 73.361 21.6662C73.361 25.9917 69.4756 28 64.6285 28C59.7429 28 55.7805 25.9531 55.3958 20.971ZM85.5558 20.9324L82.9399 23.7517V27.4207H76.7078V0H82.9399V15.7186L89.4412 8.68965H96.8658L89.7874 16.3365L97.4813 27.4207H90.0182L85.5558 20.9324ZM111.061 8.34207C116.1 8.34207 120.332 12.5131 120.332 18.0745C120.332 23.6745 116.1 27.8841 111.061 27.8841C109.022 27.8841 107.329 27.3434 105.945 26.4552V27.4207H99.7125V0H105.945V9.77103C107.329 8.88276 109.022 8.34207 111.061 8.34207ZM109.83 22.7476C112.369 22.7476 114.215 20.7007 114.215 18.0745C114.215 15.5255 112.369 13.44 109.83 13.44C108.445 13.44 107.099 13.8648 105.945 15.2166V21.0097C107.099 22.3614 108.445 22.7476 109.83 22.7476ZM132.988 8.26483C138.874 8.26483 143.106 12.3972 143.106 18.0359C143.106 23.7517 138.874 28 132.988 28C127.103 28 122.871 23.7517 122.871 18.0359C122.871 12.3972 127.103 8.26483 132.988 8.26483ZM133.027 22.5931C135.527 22.5931 137.22 20.5848 137.22 18.0745C137.22 15.6414 135.527 13.6717 133.027 13.6717C130.488 13.6717 128.795 15.6414 128.795 18.0745C128.795 20.5848 130.488 22.5931 133.027 22.5931ZM155.801 8.26483C161.687 8.26483 165.918 12.3972 165.918 18.0359C165.918 23.7517 161.687 28 155.801 28C149.915 28 145.683 23.7517 145.683 18.0359C145.683 12.3972 149.915 8.26483 155.801 8.26483ZM155.839 22.5931C158.34 22.5931 160.032 20.5848 160.032 18.0745C160.032 15.6414 158.34 13.6717 155.839 13.6717C153.3 13.6717 151.608 15.6414 151.608 18.0745C151.608 20.5848 153.3 22.5931 155.839 22.5931ZM178.075 20.9324L175.459 23.7517V27.4207H169.227V0H175.459V15.7186L181.96 8.68965H189.385L182.306 16.3365L190 27.4207H182.537L178.075 20.9324Z" fill="white"/>
</svg>
